X:376
T: Hongjun bujiu yaoguilai
N: C1878
O: China,ÿSichuan Nanjiang
S: II, 234]
R: Shange]
M: 2/4
L: 1/16
K: G
EDCDE4
GGDGE4
G2BGA2BGA4
EGAGE4
DDDEG2ABA4
EGAEG4
EGA2E2G2 | EEGED4 |
BGABGAB2 | G2ABABA6 | G8 |
BBAGA2GBA3G | EGAEG3E | AG2GA2E2D4
EDB,DB,DE2
B,DB,DEGE2
G3EDEG2 | G2ABABG2 |
GGEDBAGBA4
EGAEG4
c2A2GAc2 | AccEG4 |
AG2GA2E2 | D8

